X: 34
T:Sherborne Jig, Longborough
M:6/8
L:1/8
A:Longborough
P:A(A2B2)4A2
K:G
P:A
G|Gdc B>AG|Gdc B>AG|e2d efg|BcA G2||
P:B
M:3/4
L:1/8
(3def|g2 f2 e2 |\
d3  c B2 |\
M:4/4
L:1/8
cde2 d2c2|\
B3A G2(3def|
M:3/4
L:1/8
g2 f2 e2 |\
d3  c B2 |\
M:4/4
L:1/8
cded c2A2|\
M:6/8
G3-G2   ||
